X:592
T: "Mailied"
N: Z1272
O: Europa, Mitteleuropa, Schweiz; Elsass
R: Natur und Welt
M: 6/8
L: 1/16
K: G
G2 | B2d2c2B2G2A2 | B2d2c2A4
G2 | B2d2c2B2G2A2 | B2dcAFG4
A2 | B2d2c2A4GA | B2d2c2A4
GA | B2d2c2B2G2A2 | B4A2G4
A2 | B2d2c2A4GA | B2d2c2A4
G2 | B2d2c2B2G2A2 | B4A2G4

